symbols/web/filter_8/materialsymbolssharp/filter_8_wght500grad200_40px.svg

<svg xmlns="http://www.w3.org/2000/svg" height="40" width="40"><path d="m19.667 16.667-1.709 1.666v7.375h10.584v-7.375l-1.75-1.666L28.542 15V7.625H17.958V15Zm5.416-5.584V15h-3.666v-3.917Zm0 7.25v3.917h-3.666v-3.917ZM8.458 31.875V2.208h29.625v29.667Zm3.709-3.75h22.208V5.917H12.167ZM1.958 38.333V8.708h3.709v25.917h25.916v3.708Zm10.209-10.208V5.917v22.208Z"/></svg>

<svg xmlns="http://www.w3.org/2000/svg" height="40" width="40"><path d="M19.667 16.667 17.958 18.333V25.708H28.542V18.333L26.792 16.667L28.542 15V7.625H17.958V15ZM25.083 11.083V15H21.417V11.083ZM25.083 18.333V22.25H21.417V18.333ZM8.458 31.875V2.208H38.083V31.875ZM12.167 28.125H34.375V5.917H12.167ZM1.958 38.333V8.708H5.667V34.625H31.583V38.333ZM12.167 28.125V5.917V28.125Z"/></svg>
